packages/sources/assets/src/assets/flag-md.svg

<svg width="28" height="20" viewBox="0 0 28 20" fill="none" xmlns="http://www.w3.org/2000/svg">
<rect width="28" height="20" rx="2" fill="white"/>
<mask id="mask0_503_3669" style="mask-type:alpha" maskUnits="userSpaceOnUse" x="0" y="0" width="28" height="20">
<rect width="28" height="20" rx="2" fill="white"/>
</mask>
<g mask="url(#mask0_503_3669)">
<rect x="13.3333" width="14.6667" height="20" fill="#EB1C43"/>
<path fill-rule="evenodd" clip-rule="evenodd" d="M0 20H9.33333V0H0V20Z" fill="#115BCB"/>
<path fill-rule="evenodd" clip-rule="evenodd" d="M9.33331 20H18.6666V0H9.33331V20Z" fill="#FFD953"/>
<path fill-rule="evenodd" clip-rule="evenodd" d="M13.3333 8H12V12L14 13.3333L16 12V8H14.6667L14 6L13.3333 8ZM14.6667 11.3333V9.33333H13.3333V11.3333H14.6667Z" fill="#AF7F59"/>
</g>
</svg>

<svg width="28" height="20" fill="none" xmlns="http://www.w3.org/2000/svg"><rect width="28" height="20" rx="2" fill="#fff"/><mask id="a" style="mask-type:alpha" maskUnits="userSpaceOnUse" x="0" y="0" width="28" height="20"><rect width="28" height="20" rx="2" fill="#fff"/></mask><g mask="url(#a)"><path fill="#EB1C43" d="M13.333 0H28v20H13.333z"/><path fill-rule="evenodd" clip-rule="evenodd" d="M0 20h9.333V0H0v20Z" fill="#115BCB"/><path fill-rule="evenodd" clip-rule="evenodd" d="M9.333 20h9.334V0H9.333v20Z" fill="#FFD953"/><path fill-rule="evenodd" clip-rule="evenodd" d="M13.333 8H12v4l2 1.333L16 12V8h-1.333L14 6l-.667 2Zm1.334 3.333v-2h-1.334v2h1.334Z" fill="#AF7F59"/></g></svg>
